!!!COM: Palestrina, Giovanni Perluigi da
!!!OPR: Missa De Beata Marie Virginis (III)
!!!OMD: Credo
!!!OTL: Et resurrexit
**kern	**kern	**kern	**kern
*Itenor	*Itenor	*Icalto	*Icant
!Tenor 2	!Tenor 1	!Altus	!Cantus
*clefGv2	*clefGv2	*clefG2	*clefG2
*k[]	*k[]	*k[]	*k[]
*G:mix	*G:mix	*G:mix	*G:mix
*M3/2	*M3/2	*M3/2	*M3/2
=85	=85	=85	=85
1r	2d	1r	2dd
.	2e	.	2cc
2r	2g	2r	2b
=86	=86	=86	=86
2r	2f	2r	2a
1A	4e	2r	1cc
.	4d	.	.
.	2e	2a	.
=87	=87	=87	=87
2B	1d	2g	1dd
2d	.	2f	.
2c	2r	2e	2r
=88	=88	=88	=88
2B	1r	2d	1r
4A	.	1f	.
4G	.	.	.
2A	2r	.	2r
=89	=89	=89	=89
1G	2d	2g	1r
.	2e	2g	.
2r	2f#	2a	2r
=90	=90	=90	=90
1r	2g	2b	2dd
.	2c	2cc	2ee
2r	2d	2a	2ff#
=91	=91	=91	=91
2d	2G	2.b	1gg
2e	2r	.	.
.	.	4g	.
2f	2d	4a	2ff
.	.	4b	.
=92	=92	=92	=92
2.g	2c	2cc	2ee
.	2G	2b	2dd
4f	.	.	.
2e	2A	2a	2cc#
=93	=93	=93	=93
2d	2B-	2g	2.dd
1e	1A	1a	.
.	.	.	8cc#
.	.	.	8b
.	.	.	2cc#
=94	=94	=94	=94
2d	1d	2f#	1dd
2r	.	2a	.
2d	2r	2a	2r
=95	=95	=95	=95
2d	1r	2d	2dd
2G	.	2.g	2dd
[2c	2r	.	2g
.	.	4f	.
=96	=96	=96	=96
4c]	1r	4e	2.cc
4B	.	4d	.
2A	.	2e	.
.	.	.	4b
2d	2r	2f#	2a
=97	=97	=97	=97
8G	1r	2.g	2b
8A	.	.	.
8B	.	.	.
8c	.	.	.
1d	.	.	1a
.	.	8f#	.
.	.	8e	.
.	2r	2f#	.
=98	=98	=98	=98
1G	2d	1g	2g
.	2d	.	1b
2g	2G	2r	.
=99	=99	=99	=99
2g	2.c	2g	2cc
2c	.	2g	2g
.	4B	.	.
2e	2A	2c	2a
=100	=100	=100	=100
2d	2B	2d	4g
.	.	.	8a
.	.	.	8b
1c	1A	2e	1cc
.	.	2f#	.
=101	=101	=101	=101
[1.d	[1.G	[1.g	[1.b
=102	=102	=102	=102
2d_	2G_	2g_	2b_
1d_	1G_	1g_	1b_
=103	=103	=103	=103
1d]	1G]	1g]	1b]
*-	*-	*-	*-
!!!CDT: 1525/^1526/-1594/2/2
!!!OCY: Italia
!!!AGN: Mass (Paraphrase)
!!!AST: renaissance, vocal
!!!ASW: Gregorian Mass
!!!PWK: Masses, Book Mantuan I
!!!RNB: Cadence finals: D
!!!YOR: Le Opere Complete, v. 18, p. 162
!!!YOO: Rome, Italy: Fratelli Scalera
!!!END: 1992//
!!!EED: John Miller
!!!YEC: Copyright 2000, John Miller
!!!YEN: United States of America
!!!YEM: Rights to all derivative electronic formats reserved.
!!!YEM: Refer to licensing agreement for further details.
!!!YEM: This file must be accompanied by the licensing agreement.
!!!YEM: A copy of the licensing agreement may be found at http://www.music-cog.ohio-state.edu/HumdrumDatabases/Palestrina/license.txt
!!!EMD: converted to Humdrum by Bret Aarden
